X:1
T:Title
%%score { 1 | ( 2 3 ) }
L:1/8
Q:1/4=92
M:4/4
K:A
V:1 treble nm="Grand Piano"
V:2 bass 
V:3 bass 
V:1
 [CE]2 [CA]>[DB] [Ec][CA][CE]C | DG G>G G4 | EBBc dBGE | [CE][CA] [CA]>[DB] [Ec]4 | %4
w: T.~Martin~Towne * * * * * *||||
 [CE]2 c>d ecAc | cB B>A F4 | E[EA][CA][Ec] [A,DF][DFB][DFB][DFd] | c<c B<B [CA]4 | %8
w: ||||
 [CE]2[K:bass] [E,A,C]>[E,B,D][K:treble] [A,CE]<[CEA] [A,CE]2 | F2 D>E F<[FB] F2 | G>G G<G G2 F>G | %11
w: |||
 [DF]4 E2 z2 | [A,CE]2 [E,A,C]>[E,B,D][K:treble] [A,CE]<[CEA] [A,CE]2 | %13
w: ||
 [A,DF]2[K:bass] [F,D]>[G,DE][K:treble] [A,DF]<[DFB] [B,DF]2 | [G,DE]>[G,DE] [Fd]<[Fd] c2 B>B | %15
w: ||
 [CA]6 z2 |] %16
w: |
V:2
 [A,,A,]2 [A,,A,]>[A,,A,] [A,,A,][A,,A,][A,,A,][A,,E,A,] | %1
 [B,,E,G,][E,B,D] [E,B,D]>[E,B,D] [E,B,D]4 | %2
 [E,G,B,][E,G,E][E,G,E][E,A,E] [E,B,E][E,DE][E,B,E][E,G,D] | %3
 [A,,A,][A,,A,] [A,,A,]>[A,,A,] [A,,A,]4 | [A,,A,]2 [A,E]>[A,B,E] [A,CE][A,E][A,C][A,E] | %5
 [D,F,E][D,F,D] [D,F,D]>[D,F,D] [D,A,D]4 | [C,A,][C,A,][A,,A,][A,,A,] D,D,B,,B,, | %7
 [E,A,E]<[E,A,E] [E,G,D]<[E,G,D] [A,,A,]4 | [A,,A,]2 A,,>A,, A,,<A,, A,,2 | %9
 [D,A,D]2 [D,F,]>[D,G,D] [D,A,D]<[D,D] [D,B,D]2 | %10
 [E,B,D]>[E,B,D] [E,B,D]<[E,B,D] [E,B,D]2 [E,A,D]>[E,G,D] | z4 C2 z2 | A,,2 A,,>A,, A,,<A,, A,,2 | %13
 D,2 D,>D, D,<D, D,2 | E,>E, [E,G,]<[E,G,] [E,G,E]2 [E,G,D]>[E,G,D] | [A,,A,]6 z2 |] %16
V:3
 x8 | x8 | x8 | x8 | x8 | x8 | x8 | x8 | x8 | x8 | x8 | [A,,A,]6 z2 | x8 | x8 | x8 | x8 |] %16

